X: 36848
T: Ships Are Sailing, The
R: reel
M: 4/4
K: Edorian
Beed BedB|AD (3FED a,D (3FED|~E3F GFGA|Beef gfed|
Beed BedB|AD (3FED a,D (3FED|~E3F GFGA|Beed e3z:|
geeg bgeg|fddf afdf|geeg bgag|~f2 ed Be ef|
gfga bgeg|fddf afdf|~g2bg ~f2af|edef gfed:|

